icons/lines/gallery-edit.svg

<svg xmlns="http://www.w3.org/2000/svg" width="24" height="24" viewBox="0 0 24 24" fill="none" stroke="currentColor" stroke-width="2" stroke-linecap="round" stroke-linejoin="round" >
  <path d="M9 10C10.1046 10 11 9.10457 11 8C11 6.89543 10.1046 6 9 6C7.89543 6 7 6.89543 7 8C7 9.10457 7.89543 10 9 10Z"/>
  <path d="M13 2H9C4 2 2 4 2 9V15C2 20 4 22 9 22H15C20 22 22 20 22 15V10"/>
  <path d="M19.1399 2.59L15.5099 6.22C15.3699 6.36 15.2299 6.63 15.2099 6.83L15.0099 8.22C14.9399 8.72 15.2899 9.07 15.7899 9L17.1799 8.8C17.3699 8.77 17.6499 8.64 17.7899 8.5L21.4199 4.87C22.0499 4.24 22.3399 3.52 21.4199 2.6C20.4899 1.66 19.7699 1.96 19.1399 2.59Z" stroke-miterlimit="10"/>
  <path d="M18.6201 3.10999C18.9301 4.20999 19.7901 5.06999 20.8901 5.37999" stroke-miterlimit="10"/>
  <path d="M2.66992 18.95L7.59992 15.64C8.38992 15.11 9.52992 15.17 10.2399 15.78L10.5699 16.07C11.3499 16.74 12.6099 16.74 13.3899 16.07L17.5499 12.5C18.3299 11.83 19.5899 11.83 20.3699 12.5L21.9999 13.9"/>
  </svg>

<svg xmlns="http://www.w3.org/2000/svg" width="24" height="24" viewBox="0 0 24 24" fill="none" stroke="currentColor" stroke-width="2" stroke-linecap="round" stroke-linejoin="round">
  <path d="M13 2H9C4 2 2 4 2 9v6c0 5 2 7 7 7h6c5 0 7-2 7-7v-5" />
  <path d="M15.51 6.22a1.17 1.17 0 0 0-.3.61l-.2 1.39a.695.695 0 0 0 .78.78l1.39-.2a1.3 1.3 0 0 0 .61-.3l3.63-3.63c.63-.63.92-1.35 0-2.27-.93-.94-1.65-.64-2.28-.01z" />
  <path d="M18.62 3.11a3.28 3.28 0 0 0 2.27 2.27" />
  <path d="m2.67 18.95 4.93-3.31c.79-.53 1.93-.47 2.64.14l.33.29c.78.67 2.04.67 2.82 0l4.16-3.57c.78-.67 2.04-.67 2.82 0L22 13.9" />
  <circle cx="9" cy="8" r="2" />
</svg>
